src/assets/images/icons/tumblr.svg

<?xml version="1.0" encoding="UTF-8"?>
<svg width="22px" height="22px" viewBox="0 0 22 22" version="1.1" xmlns="http://www.w3.org/2000/svg" xmlns:xlink="http://www.w3.org/1999/xlink">
    <!-- Generator: Sketch 49.1 (51147) - http://www.bohemiancoding.com/sketch -->
    <title>tumblr</title>
    <desc>Created with Sketch.</desc>
    <defs></defs>
    <g id="Page-1" stroke="none" stroke-width="1" fill="none" fill-rule="evenodd">
        <g id="Homepage" transform="translate(-388.000000, -2214.000000)">
            <g id="Tumblr" transform="translate(389.000000, 2210.000000)">
                <g id="tumblr" transform="translate(0.000000, 5.000000)">
                    <circle id="Path" stroke="#4A4A4A" cx="10" cy="10" r="10"></circle>
                    <path d="M13.0934183,14.4585987 C12.8811027,14.5576792 12.6794062,14.642604 12.488322,14.7133758 C12.2972392,14.7841476 12.1167742,14.8407641 11.9469214,14.8832272 C11.7770687,14.9256902 11.5983728,14.9557678 11.4108284,14.9734607 C11.2232825,14.9911537 11.0304333,15 10.8322711,15 C10.6058021,15 10.3934906,14.9858459 10.1953284,14.9575372 C9.99716756,14.9292284 9.80962582,14.886766 9.63269639,14.8301486 C9.46284365,14.7735312 9.30361002,14.7045298 9.15499006,14.6231422 C9.00636875,14.5417547 8.87190488,14.4444449 8.75159168,14.3312102 C8.62420314,14.2250525 8.51804739,14.1153579 8.4331217,14.0021231 C8.34819492,13.8888884 8.28450133,13.7721167 8.24203822,13.6518047 C8.192498,13.5314921 8.15534335,13.3846441 8.13057318,13.211253 C8.10580314,13.0378619 8.09341826,12.8379346 8.09341826,12.6114656 L8.09341826,9.09766454 L7,9.09766454 L7,7.68577563 C7.19816099,7.62208 7.38039548,7.54423236 7.5467092,7.45222862 C7.71302278,7.36022624 7.86341055,7.25407049 7.99787686,7.13375864 C8.1394204,7.01344544 8.2650384,6.88251992 8.37473495,6.74097665 C8.4844304,6.59943338 8.5817403,6.44373809 8.66666599,6.27388535 C8.75159304,6.11111066 8.82236399,5.92356756 8.87898021,5.71125197 C8.93559779,5.49893775 8.98159898,5.26185512 9.01698514,5 L10.418259,5 L10.418259,7.52653928 L12.7643319,7.52653928 L12.7643319,9.09766454 L10.418259,9.09766454 L10.418259,11.6666667 C10.418259,11.9568313 10.4253357,12.1939125 10.4394904,12.3779186 C10.4536452,12.5619261 10.4784149,12.69639 10.5138011,12.781317 C10.5421092,12.8662427 10.5845721,12.940552 10.6411896,13.0042463 C10.6978059,13.0679406 10.7650385,13.1245568 10.8428875,13.1740977 C10.9561226,13.2377919 11.0746626,13.2873315 11.1985141,13.3227176 C11.3223643,13.3581038 11.455059,13.3757969 11.5966023,13.3757969 C11.844304,13.3757969 12.0937709,13.3351032 12.345011,13.2537158 C12.596251,13.1723285 12.8457165,13.0467105 13.0934183,12.8768577 L13.0934183,14.4585987 Z" id="Page-1" fill="#4A4A4A"></path>
                </g>
            </g>
        </g>
    </g>
</svg>

<svg width="22" height="22" xmlns="http://www.w3.org/2000/svg"><g transform="translate(1 1)" fill="none" fill-rule="evenodd"><circle stroke="#4A4A4A" cx="10" cy="10" r="10"/><path d="M13.093 14.459c-.212.099-.414.184-.605.254-.19.071-.371.128-.541.17-.17.043-.349.073-.536.09a6.16 6.16 0 01-.579.027 4.51 4.51 0 01-.637-.042 2.904 2.904 0 01-1.04-.334 1.957 1.957 0 01-.403-.293 1.976 1.976 0 01-.319-.329 1.312 1.312 0 01-.191-.35 1.855 1.855 0 01-.111-.44 4.286 4.286 0 01-.038-.6V9.097H7V7.686c.198-.064.38-.142.547-.234.166-.092.316-.198.45-.318a2.628 2.628 0 00.67-.86c.085-.163.155-.35.212-.563.057-.212.103-.45.138-.711h1.401v2.527h2.346v1.57h-2.346v2.57c0 .29.007.527.021.71.015.185.04.32.075.404.028.085.07.16.127.223a.95.95 0 00.202.17c.113.064.232.113.356.149.123.035.256.053.398.053.247 0 .497-.04.748-.122.251-.082.5-.207.748-.377v1.582z" fill="#4A4A4A"/></g></svg>
